X:56
T: Graf und Nonne (Die Nonne)
N: Q01552
O: Suedosteuropa, Rumaenien, Siebenbuergen
R: Ballade, Standesunterschied, vergebliche Werbung, Liebe, Klage
M: 4/4
L: 1/8
K: G
D2 | G2A2_B2c2 | _B2A2G2
G2 | d2ddd2g2 | d4z2
d2 | g2d2_e2c2 | d4c2
_B2 | A2c2_B2A2 | G2_B2d2
d2 | g2d2_e2c2 | d4c2
_B2 | A2c2_B2A2 | G4z2

